!!!COM: Chopin, Frederic
!!!CDT: 1810///-1849///
!!!OTL: Mazurka 51 in A Minor
!!!SCA: B. 140
**kern	**kern	**dynam
*staff2	*staff1	*staff1/2
*clefF4	*clefG2	*clefG2
*k[]	*k[]	*k[]
*a:	*a:	*a:
*M3/4	*M3/4	*M3/4
4r	4e^/	p
=1	=1	=1
4r	2.c/ 2.e/	.
(8F\L	.	.
8E\	.	.
8A\	.	.
8B\J	.	.
=2	=2	=2
12c\L	2.d#/ 2.f#/ 2.a/	.
12dn\	.	.
12c\J	.	.
8B\L	.	.
8d\J	.	.
4c\)	.	.
=3	=3	=3
4B\	2.d#/ 2.f#/ 2.a/ 2.b/	.
(8A#\L	.	.
8B\	.	.
8c\	.	.
8B\J	.	.
=4	=4	=4
*^	*	*
4r	4F#\)	4r	.
4An'/ 4B'/	4BB\	4d#'/ 4f#'/	.
4G#/	4EE\	4dn/ 4e/ &(4g#/&)	.
=5	=5	=5	=5
4r	2.AA\	2.A/ 2.c/ 2.e/	.
(8F/L	.	.	.
8E/	.	.	.
8A/	.	.	.
8B/J	.	.	.
*v	*v	*	*
=6	=6	=6
12c\L	2.d#/ 2.f#/ 2.a/	.
12dn\	.	.
12c\J	.	.
8B\L	.	.
8d\J	.	.
4c\)	.	.
=7	=7	=7
(4B\	2.d#/ 2.f#/ 2.a/ 2.b/	.
8A#\L	.	.
8B\	.	.
8c\	.	.
8B\J	.	.
=8	=8	=8
*^	*	*
4r	4F#\)	4r	.
4An'/ 4B'/	4BB\	4d#'/ 4f#'/	.
4G#/	4EE\	4dn/ 4e/ 4g#/	.
*v	*v	*	*
=9	=9	=9
*	*^	*
4AA\ 4E\ 4c\	(2ee/	4e\ 4a\	.
4r	.	8e/L	.
.	.	[8a/J	.
4AA\ 4E\ 4c\	12ee/L	4e\ 4a\]	.
.	12ff/	.	.
.	12ee/J	.	.
=10	=10	=10	=10
2BB\ 2F#\ 2B\	8dd#/	8r	.
.	8dd#/	8d#/L	.
.	4ddn/	8a/J	.
.	.	4.d#\	.
4E\ 4B\	4e/ 4g#/	.	.
=11	=11	=11	=11
4A\	4e/ 4a/ 4cc/)	4r	.
4r	(8e/L	4e\	.
.	8d/J	.	.
4C\ [4A\	12cc/L	[4e\	.
.	12dd/	.	.
.	12cc/J	.	.
=12	=12	=12	=12
2D\ 2A\]	8b/	8e\]	.
.	8f/L	4.f\	.
.	8a/J	.	.
.	8cc/	.	.
4E\	4e/ 4g#/ 4b/	4r	.
*	*v	*v	*
=13	=13	=13
4AA\ 4E\ 4c\	4e/ 4a/ 4ee/)	.
4r	(8e/L	.
.	8a/J	.
4AA\ 4E\ 4c\	12ee/L	.
.	12ff/	.
.	12ee/J	.
=14	=14	=14
2BB\ 2F#\ 2B\	8dd#/	.
.	8d#/L	.
.	8a/J	.
.	8dd#/	.
4E\ 4B\	4e/ 4g#/ 4ddn/	.
=15	=15	=15
*	*^	*
4A\	4e/ 4a/ 4cc/)	4r	.
4r	(8e/L	4e\	.
.	8a/J	.	.
4C\ [4A\	12cc/L	[4e\	.
.	12dd/	.	.
.	12cc/J	.	.
=16	=16	=16	=16
2D\ 2A\]	8b/	8e\]	.
.	8f/L	4.f\	.
.	8a/J	.	.
.	8cc/	.	.
[4G\	4b/	4d\	.
*	*v	*v	*
=17	=17	=17
*^	*	*
(4G/]	4C\	2.e/ 2.g/)	.
8A/L	4r	.	.
8G/	.	.	.
8c/	4r	.	.
8d/J	.	.	.
*v	*v	*	*
=18	=18	=18
12e-\L	2.f#/ 2.a/ 2.cc/	.
12fn\	.	.
12e-\J	.	.
8d\L	.	.
8f\J	.	.
4e-\	.	.
=19	=19	=19
4d\)	2.f#/ 2.a/ 2.cc/ 2.dd/	.
(8c#\L	.	.
8d\	.	.
8en\	.	.
8d\J	.	.
=20	=20	=20
4A\	4r	.
4D\	4cn'/ 4d'/ 4f#'/ 4a'/	.
4GG/	4B'/ 4fn'/ 4g'/ &(4b'/&)	.
=21	=21	=21
4C/)	2.c/ 2.e/ 2.g/	.
(8A\L	.	.
8G\	.	.
8c\	.	.
8d\J	.	.
=22	=22	=22
12e-\L	2.f#/ 2.a/ 2.cc/	.
12fn\	.	.
12e-\J	.	.
8d\L	.	.
8f\J	.	.
4e-\)	.	.
=23	=23	=23
(4d\	2.f#/ 2.a/ 2.cc/ 2.dd/	.
8c#\L	.	.
8d\	.	.
8en\	.	.
8d\J	.	.
=24	=24	=24
4A\	4r	.
4D\	4cn/ 4d/ 4f#/ 4a/	.
4GG/)	4B'/ 4fn'/ 4g'/ 4b'/	.
=25	=25	=25
*	*^	*
4C\ 4G\ 4e\	(2gg/	4g\ 4cc\	.
4r	.	8g\L	.
.	.	8cc\J	.
4C\ 4G\ 4e\	12gg/L	4r	.
.	12aa/	.	.
.	12gg/J	.	.
=26	=26	=26	=26
2D\ 2d\	8ff#/	8r	.
.	8a/L	4.a\	.
.	8cc/J	.	.
.	8ff#/	.	.
4G\ 4d\	4ffn/	4b\	.
=27	=27	=27	=27
4C\ 4G\ 4e\	4r	4g\ 4cc\ 4ee\)	.
4r	(8g/L	4g\	.
.	8cc/J	.	.
4GG/ 4G/	12ee/L	[4g\	.
.	12ff/	.	.
.	12ee/J	.	.
=28	=28	=28	=28
2GG\ 2A\	8dd#/	8g\]	.
.	8f#/L	4.f#\	.
.	8cc/J	.	.
.	8dd#/	.	.
4GG\ 4B\	4ddn/	4fn\	.
*	*v	*v	*
=29	=29	=29
4C\ 4G\	4e\ 4cc\ 4gg\)	.
4r	8g/L	.
.	8cc/J	.
4C\ 4G\ 4e\	12gg/L	.
.	12aa/	.
.	12gg/J	.
=30	=30	=30
*	*^	*
2D\ 2d\	8ff#/	8r	.
.	8a/L	4.a\	.
.	8cc/J	.	.
.	8ff#/	.	.
4G\ 4d\	4ffn/	4b\	.
*	*v	*v	*
=31	=31	=31
4C\ 4G\ 4e\	4g\ 4cc\ 4ee\	.
4r	(8g/L	.
.	8cc/J	.
4CC/ 4C/	12ee/L	.
.	12ff/	.
.	12ee/J	.
=32	=32	=32
2DD/ 2D/	8dd/	.
.	8f/L	.
.	8b/J	.
.	8dd/	.
4DD#/ 4D#/	4f#/ 4a/ 4cc/	.
=33	=33	=33
4EE/ 4E/	2.dn/ 2.e/ 2.g#/ 2.b/	.
8F\L	.	.
8E\	.	.
8A\	.	.
8B\J	.	.
=34	=34	=34
12c\L	2.d#/ 2.f#/ 2.a/	.
12dn\	.	.
12c\J	.	.
8B\L	.	.
8d\J	.	.
4c\	.	.
=35	=35	=35
4B\	2.d#/ 2.f#/ 2.a/ 2.b/)	.
8A#\L	.	.
8B\	.	.
8c\	.	.
8B\J	.	.
=36	=36	=36
*^	*	*
4r	4F#\	4r	.
4An'/ 4B'/	4BB\	4d#'/ 4f#'/	.
4G#'/	&(4EE\&)	4dn'/ 4e'/ 4g#'/	.
=37	=37	=37	=37
(4E/	2.AA\	2.A/ 2.c/ 2.e/	.
8F/L	.	.	.
8E/	.	.	.
8A/	.	.	.
8B/J	.	.	.
*v	*v	*	*
=38	=38	=38
12c\L	2.d#/ 2.f#/ 2.a/	.
12dn\	.	.
12c\J	.	.
8B\L	.	.
8d\J	.	.
4c\	.	.
=39	=39	=39
4B\	2.d#/ 2.f#/ 2.a/ 2.b/	.
8A#\L	.	.
8B\	.	.
8c\	.	.
8B\J	.	.
=40	=40	=40
*^	*	*
4r	4F#\	4r	.
4An'/ 4B'/	4BB\	4d#'/ 4f#'/	.
4G#'/	4EE\)	4dn'/ 4e'/ 4g#'/	.
*v	*v	*	*
=41	=41	=41
*k[f#c#g#]	*k[f#c#g#]	*k[f#c#g#]
*^	*	*
4r	2FF#\	8d/ 8dd/L	p
.	.	8c#/ 8cc#/J	.
2D/	.	4B/ 4b/	.
.	4GG#\	8c#/ 8cc#/L	.
.	.	8B/ 8b/J	.
=42	=42	=42	=42
4r	4AA\	8A/ 8a/L	.
.	.	8G#/ 8g#/J	.
4F#/	4D\	4f#/	.
8G#/L	4AAA\	8g#/L	.
8F#/J	.	8f#/J	.
=43	=43	=43	=43
8E/L	4GGG#\	8e/L	.
8F#/J	.	8f#/J	.
4G#/	4D\	4g#/	.
8A/L	4EEE\	8a/L	.
8B/J	.	8b/J	.
*v	*v	*	*
=44	=44	=44
4AAA/	8c#/ 8cc#/L	.
.	8d/ 8dd/J	.
4E\ 4c#\	4d#/ 4dd#/	.
4AA/	8e/ 8ee/L	.
.	8e#/ 8ee#/J	.
=45	=45	=45
*^	*	*
4r	2Dn\	8g#\ 8gg#\L	.
.	.	8f#\ 8ff#\J	.
[2A/	.	4a\ 4aa\	.
.	4D\	8f#\ 8ff#\L	.
.	.	8g#\ 8gg#\J	.
=46	=46	=46	=46
4A/]	2C#\	8f#\ 8ff#\L	.
.	.	8e\ 8ee\J	.
[2A/	.	4a\ 4aa\	.
.	4C#\	8e\ 8ee\L	.
.	.	8f#\ 8ff#\J	.
=47	=47	=47	=47
4A/]	2BB\	8e/ 8ee/L	.
.	.	8d/ 8dd/J	.
4G#/	.	4f#/ 4ff#/	.
4r	4EE\	8d/ 8dd/L	.
.	.	8e/ 8ee/J	.
=48	=48	=48	=48
4r	2AA\	8d/ 8dd/L	.
.	.	8c#/ 8cc#/J	.
4E/ 4A/	.	4f#/ 4ff#/	.
4r	[4EE\	8c#/ 8cc#/L	.
.	.	8e/ 8ee/J	.
*v	*v	*	*
=49	=49	=49
4EE/] 4BB/	8d/ 8dd/L	.
.	8c#/ 8cc#/J	.
4D\ 4G#\	4B/ 4b/	.
4EE#/	8c#/ 8cc#/L	.
.	8B/ 8b/J	.
=50	=50	=50
*^	*	*
4r	4FF#/	8A/ 8a/L	.
.	.	8G#/ 8g#/J	.
4F#/	4D\	4f#/	.
8G#/L	4AAA\	8g#/L	.
8F#/J	.	8f#/J	.
=51	=51	=51	=51
8E/L	4GGG#\	8e/L	.
8F#/J	.	8f#/J	.
4G#/	4D\	4g#/	.
8A/L	4EEE\	8a/L	.
8B/J	.	8b/J	.
*v	*v	*	*
=52	=52	=52
4AAA/	8c#/ 8cc#/L	.
.	8d/ 8dd/J	.
4E\ 4c#\	4d#/ 4dd#/	.
4AA/	8e/ 8ee/L	.
.	8e#/ 8ee#/J	.
=53	=53	=53
4GG#/	8f#\ 8ff#\L	.
.	8f##\ 8ff##\J	.
4E#\ 4c#\	4g#\ 4gg#\	.
4GG#/	8a#\ 8aa#\L	.
.	8b#\ 8bb#\J	.
=54	=54	=54
4GGG#/	8cc#\ 8ccc#\L	.
.	8dd#\ 8ddd#\J	.
*clefG2	*	*
4c#/ 4e#/ 4cc#/	4ee#\ 4eee#\	.
4G#/	8f#\ 8ff#\L	.
.	8f##\ 8ff##\J	.
=55	=55	=55
4e/	8a#\ 8aa#\L	.
.	8g#\ 8gg#\J	.
*clefG2	*	*
4d/ 4f#/ 4b/	4f#\ 4ff#\	.
4G#/	8e#/ 8ee#/L	.
.	8d#/ 8dd#/J	.
=56	=56	=56
4a/	8f#/ 8ff#/L	.
.	8e#/ 8ee#/J	.
4ee\ 4ccc#\	4cc#\ 4ccc#\	.
4a/	8b#\ 8bb#\L	.
.	8cc#\ 8ccc#\J	.
=57	=57	=57
4gn/	8ddn\ 8dddn\L	p
.	8cc#\ 8ccc#\J	.
4ff#\ 4gg#\ 4ddd\	4bn\ 4bbn\	.
4cc#\ 4ee\ 4ccc#\	8cc#\ 8ccc#\L	.
.	8b\ 8bb\J	.
=58	=58	=58
*clefF4	*	*
*^	*	*
4e#/	2F#\	8a\ 8aa\L	.
.	.	8g#\ 8gg#\J	.
4A/ 4d/	.	4f#\ 4ff#\	.
4r	4AA\	8g#\ 8gg#\L	.
.	.	8f#\ 8ff#\J	.
*v	*v	*	*
=59	=59	=59
4GG#/	8e\ 8ee\L	.
.	8f#\ 8ff#\J	.
4E\ 4B\ 4d\	4g#\ 4gg#\	.
4EE/	8a\ 8aa\L	.
.	8b\ 8bb\J	.
=60	=60	=60
4AA/	8cc#\ 8ccc#\L	.
.	8dd\ 8ddd\J	.
4E\ 4c#\	4dd#\ 4ddd#\	.
4AA/	8e\ 8ee\L	.
.	8e#\ 8ee#\J	.
=61	=61	=61
4Dn\	8g#\ 8gg#\L	.
.	8f#\ 8ff#\J	.
4A\ 4f#\	4a\ 4aa\	.
4D\	8f#\ 8ff#\L	.
.	8g#\ 8gg#\J	.
=62	=62	=62
4C#/	8f#\ 8ff#\L	.
.	8en\ 8een\J	.
4A\ 4e\	4a\ 4aa\	.
4C#/	8e\ 8ee\L	.
.	8f#\ 8ff#\J	.
=63	=63	=63
4BB/	8e\ 8ee\L	.
.	8d\ 8dd\J	.
4E\ 4G#\ 4d\	4f#\ 4ff#\	.
4EE/	8dd\ 8ddd\L	.
.	8ee\ 8eee\J	.
=64	=64	=64
4AA/	8dd\ 8ddd\L	.
.	8cc#\ 8ccc#\J	.
4E\ 4c#\	4ff#\ 4fff#\	.
4AA/	8cc#\ 8ccc#\L	.
.	8ee\ 8eee\J	.
=65	=65	=65
4EE/	8dd\ 8ddd\L	.
.	8cc#\ 8ccc#\J	.
4D\ 4G#\	4b\ 4bb\	.
4EE#/	8cc#\ 8ccc#\L	.
.	8b\ 8bb\J	.
=66	=66	=66
4FF#/	8a\ 8aa\L	.
.	8g#\ 8gg#\J	.
4D\ 4A\	4f#\ 4ff#\	.
4FF#/	8g#\ 8gg#\L	.
.	8f#\ 8ff#\J	.
=67	=67	=67
4GG#/	8e\ 8ee\L	.
.	8f#\ 8ff#\J	.
4E\ 4B\ 4d\	4g#\ 4gg#\	.
4EE/	8a\ 8aa\L	.
.	8b\ 8bb\J	.
=68	=68	=68
4AA/	8cc#\ 8ccc#\L	.
.	8dd\ 8ddd\J	.
4E\ 4c#\	4dd#\ 4ddd#\	.
4AA/	8ee\ 8eee\L	.
.	8ee#\ 8eee#\J	.
=69	=69	=69
4D/	8ggg#\L	.
.	8ff#\ 8fff#\J	.
*clefG2	*	*
4B/ 4f#/ 4a/ 4b/	4dd\ 4dddn\	.
4r	8cc#\ 8ccc#\L	.
.	8b\ 8bb\J	.
=70	=70	=70
*clefF4	*	*
4E\	8cc#\ 8ccc#\L	.
.	8b\ 8bb\J	.
*clefG2	*	*
4c#/ 4e/ 4a/	4a\ 4aa\	.
*clefF4	*	*
4E\	8g#\ 8gg#\L	.
.	8f#\ 8ff#\J	.
=71	=71	=71
4EE/	8e\ 8ee\L	.
.	8d\ 8dd\J	.
*clefG2	*	*
4B/ 4d/ 4g#/	4b\ 4bb\	.
*clefF4	*	*
4E\	4a\ 4aa\	.
=72	=72	=72
4EE/	8a\ 8aa\L	.
.	8g#\ 8gg#\J	.
4A\ 4c#\ 4f#\	4f#\ 4ff#\	.
4E\	8ee\ 8eee\L	.
.	8dd\ 8ddd\J	.
=73	=73	=73
4EE/	8cc#\ 8ccc#\L	.
.	8b\ 8bb\J	.
4E\ 4G#\ 4d\	4gg#\ 4ggg#\	.
*clefG2	*	*
(8ff#\L	8fff#\L	.
8ffn\J	8fffn\J	.
=74	=74	=74
8ee\L	8eee\L	.
8dd#\J	8ddd#\J	.
4ddn\	4dddn\	.
8b/L	8bb\L	.
8g#/J	8gg#\J	.
=75	=75	=75
8fn/L	8ffn\L	.
8e/J	8ee\J	.
4d#/	4dd#\	.
8dn/L	8ddn\L	.
8B/J	8b\J	.
*clefF4	*	*
=76	=76	=76
8G#\L	8g#/L	.
8Fn\J	8fn/J	.
4E\	4e/	.
8D#\L	8d#/L	.
8F\J	8f/J	.
=77	=77	=77
*k[]	*k[]	*k[]
4AA/ 4E/)	2.c/ 2.e/	.
(8F\L	.	.
8E\	.	.
8A\	.	.
8B\J	.	.
=78	=78	=78
12c\L	2.d#/ 2.f#/ 2.a/	.
12dn\	.	.
12c\J	.	.
8B\L	.	.
8d\J	.	.
4c\)	.	.
=79	=79	=79
(4B\	2.d#/ 2.f#/ 2.a/ 2.b/	.
8A#\L	.	.
8B\	.	.
8c\	.	.
8B\J	.	.
=80	=80	=80
*^	*	*
4r	4F#\)	4r	.
4An'/ 4B'/	4BB\	4d#'/ 4f#'/	.
4G#'/	4EE\	4dn'/ 4e'/ 4g#'/	.
=81	=81	=81	=81
4r	2.AA\	2.A/ 2.c/ (2.e/	.
8F/L	.	.	.
8E/	.	.	.
8A/	.	.	.
8B/J	.	.	.
*v	*v	*	*
=82	=82	=82
12c\L	2.d#/ 2.f#/ 2.a/	.
12dn\	.	.
12c\J	.	.
8B\L	.	.
8d\J	.	.
4c\	.	.
=83	=83	=83
(4B\	2.d#/ 2.f#/ 2.a/ 2.b/)	.
8A#\L	.	.
8B\	.	.
8c\	.	.
8B\J	.	.
=84	=84	=84
*^	*	*
4r	4F#\)	4r	.
4An'/ 4B'/	4BB\	4d#'/ 4f#'/	.
4G#/	4EE\	4dn/ 4e/ 4g#/	.
*v	*v	*	*
=85	=85	=85
*	*^	*
4AA\ 4E\ 4c\	(4ee/	4e\ 4a\	.
4r	8e/L	4e\	.
.	[8a/J	.	.
4AA\ 4E\ 4c\	12ee/L	&(4e\&) 4a\]	.
.	12ff/	.	.
.	12ee/J	.	.
*	*v	*v	*
=86	=86	=86
2BB\ 2F#\ 2B\	8dd#/	.
.	8d#/L	.
.	8a/J	.
.	8dd#/	.
4E\ 4B\	4e/ 4g#/ 4ddn/	.
=87	=87	=87
*	*^	*
4A\	4e/ 4a/ 4cc/)	4r	f
4r	8e/L	4r	.
.	8a/J	.	.
4C\ [4A\	12cc/L	[4e\	.
.	12dd/	.	.
.	12cc/J	.	.
*	*v	*v	*
=88	=88	=88
2D\ 2A\]	8e/] 8b/	.
.	8f/L	.
.	8a/J	.
.	8cc/	.
4E\	4d/ 4g#/ 4b/	.
=89	=89	=89
4AA\ 4E\ 4c\	4e/ 4a/ 4ee/	.
4r	(8e/L	.
.	8a/J	.
4AA\ 4E\ 4c\	12ee/L	.
.	12ff/	.
.	12ee/J	.
=90	=90	=90
2BB\ 2F#\ 2B\	8dd#/	.
.	8d#/L	.
.	8a/J	.
.	8dd#/	.
4E\ 4B\	4e/ 4g#/ 4ddn/	.
=91	=91	=91
*	*^	*
4A\	4e/ 4a/ 4cc/)	4r	.
4r	(8e/L	4r	.
.	8a/J	.	.
4C\ [4A\	12cc/L	[4e\	.
.	12dd/	.	.
.	12cc/J	.	.
*	*v	*v	*
=92	=92	=92
2D\ 2A\]	8e/] 8b/	.
.	8f/L	.
.	8a/J	.
.	8cc/	.
[4G^\	4d/ 4b/	.
=93	=93	=93
*^	*	*
4G/]	4C\	2.e/ 2.g/)	.
4r	(8A\L	.	.
.	8G\	.	.
4r	8c\	.	.
.	8d\J	.	.
*v	*v	*	*
=94	=94	=94
12e-\L	2.f#/ 2.a/ 2.cc/	.
12fn\	.	.
12e-\J	.	.
8d\L	.	.
8f\J	.	.
4e-\)	.	.
=95	=95	=95
(4d\	2.f#/ 2.a/ 2.cc/ &(2.dd/&)	.
8c#\L	.	.
8d\	.	.
8en\	.	.
8d\J	.	.
=96	=96	=96
4A\	4r	.
4D\	4cn/ 4d/ 4f#/ 4a/	.
4GG/)	4B'/ 4fn'/ 4g'/ 4b'/	.
=97	=97	=97
4C/	2.c/ 2.e/ (2.g/	.
8A\L	.	.
8G\	.	.
8c\	.	.
8d\J	.	.
=98	=98	=98
12e-\L	2.f#/ 2.a/ 2.cc/	.
12fn\	.	.
12e-\J	.	.
8d\L	.	.
8f\J	.	.
&(4e-\&)	.	.
=99	=99	=99
(4d\	2.f#/ 2.a/ 2.cc/ 2.dd/)	.
8c#\L	.	.
8d\	.	.
8en\	.	.
8d\J	.	.
=100	=100	=100
4A\	4r	.
4D\	4cn/ 4d/ 4f#/ 4a/	.
4GG/)	4B/ 4fn/ 4g/ 4b/	.
=101	=101	=101
*	*^	*
4C\ 4G\ 4e\	(4gg/	4g\ 4cc\	.
4r	8g/L	4g\	.
.	8cc/J	.	.
4C\ 4G\ 4e\	12gg/L	4r	.
.	12aa/	.	.
.	12gg/J	.	.
=102	=102	=102	=102
2C\ 2A\ 2d#\	8ff#/	8r	.
.	8f#/L	4.f#\	.
.	8cc/J	.	.
.	8ff#/	.	.
4C\ 4A-\ 4dn\	4ffn/	4fn\ 4b\	.
=103	=103	=103	=103
4C\ 4G\ 4c\	4e/ 4cc/ 4ee/	4r	.
4r	8g/L	4g\	.
.	8cc/J	.	.
4C\ 4G\	12ee/L	&(4g\&)	.
.	12ff/	.	.
.	12ee/J	.	.
=104	=104	=104	=104
2C\ 2An\	8ee-/	8r	.
.	8f#/L	4.f#\	.
.	8cc/J	.	.
.	8ee-/	.	.
4C\ 4B\	4dd/	4fn\	.
*	*v	*v	*
=105	=105	=105
4C\ 4G\ 4c\	4en\ 4cc\ 4gg\)	.
4r	(8g/L	.
.	8cc/J	.
4C\ 4G\ 4e\	12gg/L	.
.	12aa/	.
.	12gg/J	.
=106	=106	=106
*	*^	*
2D\ 2A\ 2d\	8ff#/	8r	.
.	8f#/L	4.f#\	.
.	8cc/J	.	.
.	8ff#/	.	.
4G\ 4d\	4ffn/	4fn\ 4b\	.
=107	=107	=107	=107
4C\ 4G\	4ee/)	4e\ 4cc\	.
4r	8g/L	([4g\	.
.	8cc/J	.	.
4C\ 4c\	12ee/L	4g\]	.
.	12ff/	.	.
.	12ee/J	.	.
*	*v	*v	*
=108	=108	=108
2D\ 2B\	8dd/	.
.	8f/L	.
.	8b/J	.
.	8dd/	.
4D#\ 4A\	4f#/ 4cc/	.
=109	=109	=109
4E\	4d/ 4e/ 4g#/ 4b/	.
4r	8d/L	.
.	8e/J	.
4EE/ 4E/	12b/L	.
.	12cc/	.
.	12b/J	.
=110	=110	=110
*	*^	*
4AA/ 4E/	8a/	8r	.
.	8c/L	4.c\	.
4r	8e/J	.	.
.	8a/	.	.
4EE/ 4E/	4cc/	4c\ 4e\	.
*	*v	*v	*
=111	=111	=111
4GG#/ 4E/	4d/ 4e/ 4b/)	.
4r	(8d/L	.
.	8e/J	.
4EE/ 4E/	12b/L	.
.	12cc/	.
.	12b/J	.
=112	=112	=112
*	*^	*
4AA/ 4E/	4a/	4r	.
4r	8gn/L	4c\	.
.	8f/J	.	.
4EE/ 4E/	4e/	4c\	.
*	*v	*v	*
=113	=113	=113
4EE/ 4E/	4d/ 4g#/ 4b/)	.
4r	8d/L	.
.	8g#/J	.
4EE/ 4E/	12b/L	.
.	12cc/	.
.	12b/J	.
=114	=114	=114
4AA/	8a/	.
.	8c/L	.
4r	8e/J	.
.	8a/	.
4D\ 4A\	4f/ 4cc/	.
=115	=115	=115
4E\	4d/ 4g#/ 4b/	.
4r	8d/L	.
.	8g#/J	.
4EE/ [4E/	12b/L	.
.	12cc/	.
.	12b/J	.
=116	=116	=116
*	*^	*
4AA/ 4E/]	4a/	8r	.
.	.	8c\	.
4D\ [4A\	8gn/L	4d\	.
.	8f/J	.	.
4AA\ 4E\ 4A\]	4c/ 4e/	4r	.
=117	=117	=117	=117
4E\	4d/ 4g#/ 4b/	4r	.
4r	(8d/L	4d\	.
.	8g#/J	.	.
4EE/ 4E/	12b/L	4d\)	.
.	12cc/	.	.
.	12b/J	.	.
*	*v	*v	*
=118	=118	=118
4AA/ 4E/	8a/	.
.	8c/L	.
4r	8e/J	.
.	8a/	.
4D\ [4A\	4d/ 4f/ 4cc/	.
=119	=119	=119
4AA\ 4E\ 4A\]	8a/	.
.	8c/L	.
4r	8e/J	.
.	8a/	.
4D\ [4A\	4d/ 4f/ 4cc/	.
=120	=120	=120
*	*^	*
4AA\ 4E\ 4A\]	8a/	8r	.
.	8c/L	4.c\	.
4r	8e/J	.	.
.	8a/	.	.
4D\ 4A\	4d/ 4f/ 4cc/	4r	.
*	*v	*v	*
=121	=121	=121
4AA/ 4E/	2.a/	.
*clefG2	*	*
4.c/ (4.e/	.	.
8B/ 8d#/	.	.
=122	=122	=122
4dn/ 4f/	2.a/	.
4.c/ 4.e/	.	.
8B/ 8d#/	.	.
=123	=123	=123
8.dn/ 8.f/L	2.a/	.
16c/ 16e/Jk	.	.
4.c/ 4.e/	.	.
8B/ 8d#/	.	.
=124	=124	=124
8.B/ 8.d#/L	2.a/	.
16c/ 16e/Jk	.	.
4c/ 4e/)	.	.
4r	.	.
*clefF4	*	*
=125	=125	=125
4AAA/	2.a/	.
4.E\ (4.c\	.	.
8D#\ 8B\	.	.
=126	=126	=126
4F\ 4dn\	2.a/	.
4.E\ 4.c\	.	.
8D#\ 8B\	.	.
=127	=127	=127
8.F\ 8.dn\L	2.a/	.
16E\ 16c\Jk	.	.
4E\ 4c\	.	.
4D#\ 4B\	.	.
=128	=128	=128
8.D#\ 8.B\L	2.a/	.
16E\ 16c\Jk	.	.
4C\ 4A\)	.	.
4r	.	.
=129	=129	=129
4AAA/	2.a/	.
4E\ 4e\	.	.
4r	.	.
=130	=130	=130
8.D#\ (8.B\L	2.a/	.
16E\ 16c\Jk	.	.
2C\ 2A\)	.	.
=131	=131	=131
2.AA;\ 2.E;\ 2.c;\	4cccc\	.
.	4r	.
.	4r;	.
==	==	==
*-	*-	*-
!!!SMS: Mikuli edition, G. Schirmer (1894-1898)
!!!ENC: Craig Stuart Sapp
!!!END: 2005/03/17/
